X: 19709
T: Jenny Lind
R: polka
M: 2/4
K: Dmajor
|:FA GB|Af f2|Ge e2|Fd dA/G/|
FA GB|Af fe/f/|ge e/g/f/e/|1 df dA/G/:|2 df df||
K: Gmaj
|:gf e/g/f/e/|dB BA/B/|cA AG/A/|BG Ge/f/|
gf e/g/f/e/|dB BA/B/|cA A/c/B/A/|1 GB Gf:|2 GB GA/G/||

